src/assets/images/chatbulb3d.svg

<svg width="504" height="346" viewBox="0 0 504 346" fill="none" xmlns="http://www.w3.org/2000/svg">
<path d="M136.157 8.1582C144.231 5.66725 150.686 5.28921 157.077 5.55566C160.281 5.68924 163.463 5.98361 166.841 6.25781C170.214 6.53163 173.77 6.78427 177.697 6.82715C192.617 6.99185 208.998 6.4269 225.232 6.11621C241.477 5.80534 257.583 5.74854 271.993 6.92285C304.874 9.60174 360.327 22.4159 394.027 29.542C396.029 29.9643 398.458 30.3412 400.778 30.7627C403.119 31.1879 405.361 31.6602 407.063 32.2783H407.064C408.366 32.7477 409.938 33.7348 411.729 35.1553C413.513 36.5705 415.487 38.3937 417.592 40.5068C421.802 44.7335 426.509 50.0928 431.233 55.6084C435.953 61.1177 440.694 66.7871 444.954 71.6094C449.163 76.3739 452.938 80.3529 455.791 82.5508L498.457 162.765L457.662 248.433L393.548 272.881L393.346 272.958L393.264 273.159L363.997 344.84C363.845 344.883 363.612 344.916 363.296 344.916C362.873 344.916 362.368 344.86 361.853 344.756C361.338 344.651 360.826 344.501 360.388 344.32C359.941 344.136 359.608 343.934 359.416 343.744L359.415 343.743C341.615 326.194 323.313 308.907 303.702 292.678L303.572 292.57L303.404 292.563L139.55 285.678C100.284 269.827 63.0639 250.573 25.0283 232.735C24.175 231.892 23.3014 230.367 22.4424 228.395C21.5723 226.396 20.7415 224 19.9727 221.529C19.2043 219.06 18.5007 216.526 17.8809 214.255C17.2627 211.99 16.7249 209.975 16.2949 208.561H16.2959C14.3136 201.99 10.375 190.078 6.90918 178.318C5.17968 172.45 3.5759 166.644 2.4043 161.604C1.2298 156.551 0.500043 152.309 0.5 149.549C0.5 146.236 1.59321 140.829 3.34766 134.284C5.09745 127.757 7.48972 120.15 10.0576 112.465C14.5532 99.0103 19.5751 85.3492 22.6221 76.8242L23.7998 73.5C24.7155 70.8874 26.1443 66.0791 27.876 61.4697C28.7377 59.1761 29.6635 56.9624 30.6201 55.1416C31.5663 53.3406 32.5103 51.9887 33.4053 51.2969C50.403 45.418 67.6143 37.2498 84.792 29.2529C102.008 21.2382 119.193 13.3954 136.157 8.1582Z" fill="#AD8DFF" stroke="#AD8DFF"/>
<path d="M412.342 27.4092C413.583 27.9142 415.054 28.8575 416.712 30.1729C418.496 31.5882 420.471 33.4112 422.576 35.5244C426.786 39.751 431.493 45.1104 436.218 50.626C440.937 56.1353 445.679 61.8046 449.938 66.627C453.973 71.1938 457.609 75.0384 460.416 77.2852L456.144 81.5566C453.407 79.3866 449.79 75.5745 445.704 70.9492C441.451 66.134 436.724 60.4821 431.993 54.959C427.268 49.4425 422.54 44.0583 418.301 39.8027C416.181 37.6748 414.176 35.8217 412.35 34.373C410.821 33.1606 409.396 32.2152 408.118 31.6328L412.342 27.4092Z" fill="#AD8DFF" stroke="#AD8DFF" stroke-linejoin="round"/>
<path d="M399.276 24.6133C401.225 25.0133 403.542 25.3773 405.761 25.7803C407.77 26.1453 409.706 26.546 411.291 27.043L407.098 31.2363C405.353 30.6397 403.165 30.1818 400.955 29.7803C398.945 29.4151 396.924 29.0928 395.143 28.7471L399.276 24.6133Z" fill="#AD8DFF" stroke="#AD8DFF" stroke-linejoin="round"/>
<path d="M503.384 157.678L499.141 161.922L456.799 82.3154L461.043 78.0713L503.384 157.678Z" fill="#AD8DFF" stroke="#AD8DFF" stroke-linejoin="round"/>
<path d="M277.204 1.95898C309.821 4.65441 364.407 17.2224 398.107 24.3672L393.966 28.5078C360.658 21.4591 306.142 8.88216 273.145 6.01855L277.204 1.95898Z" fill="#AD8DFF" stroke="#AD8DFF" stroke-linejoin="round"/>
<path d="M462.597 243.555L459.727 246.425L499.43 163.049L502.3 160.178L462.597 243.555Z" fill="#AD8DFF" stroke="#AD8DFF" stroke-linejoin="round"/>
<path d="M230.217 1.13477C246.056 0.831651 261.764 0.77068 275.896 1.85645L271.843 5.91016C257.438 4.75083 241.374 4.80987 225.213 5.11914C209.388 5.42198 193.478 5.96099 178.9 5.83789L182.894 1.8457C197.756 2.00278 214.059 1.44398 230.217 1.13477Z" fill="#AD8DFF" stroke="#AD8DFF" stroke-linejoin="round"/>
<path d="M457.749 248.402L395.733 272.049L398.989 268.794L461.004 245.147L457.749 248.402Z" fill="#AD8DFF" stroke="#AD8DFF" stroke-linejoin="round"/>
<path d="M141.256 3.13965C149.275 0.680929 155.699 0.308065 162.06 0.573242C165.263 0.706827 168.446 1.00119 171.823 1.27539C174.855 1.52151 178.035 1.74843 181.499 1.82324L177.497 5.82422C173.688 5.77525 170.226 5.53108 166.92 5.2627C163.558 4.98978 160.347 4.69227 157.117 4.55762C151.144 4.30857 145.088 4.61676 137.742 6.65332L141.256 3.13965Z" fill="#AD8DFF" stroke="#AD8DFF" stroke-linejoin="round"/>
<path d="M368.945 339.942L365.787 343.101L394.15 273.632L397.309 270.474L368.945 339.942Z" fill="#AD8DFF" stroke="#AD8DFF" stroke-linejoin="round"/>
<path d="M135.743 7.24023C118.744 12.5003 101.54 20.3547 84.3711 28.3477C67.8498 36.039 51.3614 43.8561 35.0703 49.6533L38.4209 46.3037C55.4086 40.4257 72.609 32.2626 89.7764 24.2705C106.335 16.5619 122.865 9.01237 139.197 3.78711L135.743 7.24023Z" fill="#AD8DFF" stroke="#AD8DFF" stroke-linejoin="round"/>
<mask id="path-12-inside-1_51_2225" fill="white">
<path d="M369.371 340.239V340.227L364.387 345.21V345.223L369.371 340.239Z"/>
</mask>
<path d="M369.371 340.239V340.227L364.387 345.21V345.223L369.371 340.239Z" fill="#AD8DFF"/>
<path d="M369.371 340.227H370.371C370.371 339.822 370.127 339.457 369.753 339.303C369.38 339.148 368.949 339.233 368.663 339.519L369.371 340.227ZM369.371 340.239L370.078 340.946C370.265 340.758 370.371 340.504 370.371 340.239H369.371ZM364.387 345.223H363.387C363.387 345.627 363.63 345.992 364.004 346.147C364.378 346.301 364.808 346.216 365.094 345.93L364.387 345.223ZM364.387 345.21L363.68 344.503C363.492 344.691 363.387 344.945 363.387 345.21H364.387ZM369.371 340.227H368.371V340.239H369.371H370.371V340.227H369.371ZM369.371 340.239L368.663 339.532L363.68 344.516L364.387 345.223L365.094 345.93L370.078 340.946L369.371 340.239ZM364.387 345.223H365.387V345.21H364.387H363.387V345.223H364.387ZM364.387 345.21L365.094 345.918L370.078 340.934L369.371 340.227L368.663 339.519L363.68 344.503L364.387 345.21Z" fill="#AD8DFF" mask="url(#path-12-inside-1_51_2225)"/>
<path d="M364.087 339.787C364.355 339.97 364.668 340.128 364.992 340.262C365.499 340.471 366.073 340.638 366.64 340.753C367.095 340.845 367.555 340.904 367.979 340.924L364.1 344.804C363.96 344.864 363.696 344.918 363.298 344.918C362.875 344.918 362.371 344.861 361.855 344.757C361.341 344.652 360.829 344.502 360.391 344.321C360.176 344.233 359.987 344.139 359.828 344.046L364.087 339.787Z" fill="#AD8DFF" stroke="#AD8DFF" stroke-linejoin="round"/>
<path d="M308.397 288.756C327.712 304.765 345.765 321.805 363.337 339.119L359.061 343.396C341.5 326.092 323.445 309.049 304.124 293.029L308.397 288.756Z" fill="#AD8DFF" stroke="#AD8DFF" stroke-linejoin="round"/>
<path d="M34.3975 50.3271C33.3381 52.4499 32.3352 54.9721 31.4326 57.4697C30.6731 59.5715 29.9764 61.676 29.3691 63.542C28.7789 65.3559 28.2745 66.9354 27.876 68.0811L24.4775 71.4795C25.3596 68.7789 26.5261 65.0648 27.876 61.4717C28.7377 59.1781 29.6635 56.9644 30.6201 55.1436C31.5861 53.3049 32.5494 51.9338 33.4609 51.2559C33.4804 51.2414 33.4995 51.2261 33.5166 51.209L34.3975 50.3271Z" fill="#AD8DFF" stroke="#AD8DFF" stroke-linejoin="round"/>
<path d="M307.206 288.533L303.183 292.557L140.601 285.725L144.623 281.702L307.206 288.533Z" fill="#AD8DFF" stroke="#AD8DFF" stroke-linejoin="round"/>
<path d="M27.1016 70.2695C24.1226 78.6487 18.8146 93.0374 14.0938 107.166C11.5231 114.859 9.12362 122.488 7.36621 129.044C5.64878 135.451 4.53167 140.884 4.4873 144.355L0.545898 148.297C0.767561 144.951 1.79953 140.061 3.34766 134.286C5.09747 127.759 7.4897 120.152 10.0576 112.467C15.1721 97.16 20.9666 81.586 23.7607 73.6113L27.1016 70.2695Z" fill="#AD8DFF" stroke="#AD8DFF" stroke-linejoin="round"/>
<path d="M4.51953 145.737C4.68249 148.568 5.3886 152.436 6.41406 156.848C7.59199 161.915 9.20181 167.742 10.9336 173.618C14.3402 185.177 18.2452 197.02 20.2344 203.581L16.0508 207.765C14.0023 201.057 10.2389 189.617 6.90918 178.319C5.17975 172.451 3.57587 166.646 2.4043 161.605C1.25828 156.675 0.537328 152.516 0.50293 149.754L4.51953 145.737Z" fill="#AD8DFF" stroke="#AD8DFF" stroke-linejoin="round"/>
<path d="M29.8271 228.77C67.5333 246.46 104.551 265.587 143.541 281.37L139.325 285.587C100.337 269.833 63.3609 250.731 25.5947 233.002L29.8271 228.77Z" fill="#AD8DFF" stroke="#AD8DFF" stroke-linejoin="round"/>
<path d="M20.5576 204.672C20.9372 205.986 21.3886 207.664 21.8994 209.536C22.5197 211.809 23.228 214.357 24.002 216.844C24.7754 219.329 25.6178 221.764 26.5088 223.811C27.2899 225.604 28.1289 227.148 29.0215 228.159L24.7461 232.435C23.9829 231.553 23.2062 230.152 22.4414 228.396C21.5713 226.397 20.7415 224.001 19.9727 221.53C19.2043 219.061 18.4997 216.528 17.8799 214.257C17.3025 212.141 16.7936 210.244 16.3789 208.851L20.5576 204.672Z" fill="#AD8DFF" stroke="#AD8DFF" stroke-linejoin="round"/>
<path d="M369.371 340.239C368.411 340.775 365.083 340.141 364.048 339.117C346.253 321.573 327.962 304.296 308.367 288.081L144.427 281.192C105.088 265.318 67.7869 246.018 29.7216 228.168C25.9285 224.547 22.5103 209.343 20.8012 203.723C16.8582 190.653 4.98438 155.856 4.98438 144.566C4.98438 131.021 22.7652 84.2025 28.3123 68.3527C30.1114 63.2197 34.1143 48.8695 38.1472 45.8702C72.1346 34.1291 106.992 13.1951 140.994 2.69762C157.276 -2.32557 167.05 1.17359 182.687 1.34429C212.507 1.67348 248.143 -0.911273 277.019 1.44182C309.941 4.12411 365.443 16.9503 399.115 24.0706C403.103 24.9118 408.725 25.558 412.219 26.826C423.238 30.8007 449.894 68.6453 461.168 77.2408L504.001 157.77L463.012 243.847L398.711 268.366L369.371 340.227V340.239Z" fill="#C7B1FF"/>
</svg>

<svg xmlns="http://www.w3.org/2000/svg" width="504" height="346" fill="none" viewBox="0 0 504 346">
    <path fill="#ad8dff" stroke="#ad8dff" d="M136.16 8.16a59 59 0 0 1 20.92-2.6c3.2.13 6.38.42 9.76.7s6.93.52 10.86.57c14.92.16 31.3-.4 47.53-.71 16.25-.31 32.35-.37 46.76.8 32.88 2.68 88.34 15.5 122.04 22.62 2 .42 4.43.8 6.75 1.22 2.34.43 4.58.9 6.28 1.52q1.97.72 4.67 2.88a70 70 0 0 1 5.86 5.35c4.21 4.22 8.92 9.58 13.64 15.1 4.72 5.5 9.46 11.18 13.72 16 4.21 4.76 7.99 8.74 10.84 10.94l42.67 80.21-40.8 85.67-64.11 24.45-.2.08-.09.2L364 344.84q-.23.07-.7.08-.66 0-1.45-.16a8 8 0 0 1-1.46-.44 3 3 0 0 1-.97-.58c-17.8-17.55-36.1-34.83-55.72-51.06l-.13-.11h-.17l-163.85-6.9c-39.27-15.84-76.49-35.1-114.52-52.93-.86-.85-1.73-2.37-2.59-4.34-.87-2-1.7-4.4-2.47-6.87s-1.47-5-2.09-7.28c-.62-2.26-1.16-4.28-1.59-5.69-1.98-6.57-5.91-18.48-9.38-30.24a309 309 0 0 1-4.5-16.72C1.22 156.55.5 152.3.5 149.55c0-3.31 1.1-8.72 2.85-15.27a393 393 0 0 1 6.7-21.81c4.5-13.46 9.53-27.12 12.57-35.65l1.18-3.32c.92-2.61 2.34-7.42 4.08-12.03a57 57 0 0 1 2.74-6.33c.95-1.8 1.89-3.15 2.79-3.84 17-5.88 34.2-14.05 51.38-22.05 17.22-8.01 34.4-15.85 51.37-21.1Z"/>
    <path fill="#ad8dff" stroke="#ad8dff" stroke-linejoin="round" d="M412.34 27.4q1.87.79 4.37 2.77a70 70 0 0 1 5.87 5.35 286 286 0 0 1 13.64 15.1c4.72 5.52 9.46 11.18 13.72 16 4.03 4.57 7.67 8.42 10.48 10.67l-4.28 4.27c-2.73-2.17-6.35-5.99-10.44-10.61-4.25-4.82-8.98-10.47-13.7-16a286 286 0 0 0-13.7-15.15 71 71 0 0 0-5.95-5.43 22 22 0 0 0-4.23-2.74zm-13.06-2.79c1.95.4 4.26.77 6.48 1.17a48 48 0 0 1 5.53 1.26l-4.2 4.2a45 45 0 0 0-6.13-1.46c-2.01-.36-4.04-.69-5.82-1.03zm104.1 133.07-4.24 4.24-42.34-79.6 4.24-4.25zM277.2 1.96c32.62 2.7 87.2 15.26 120.9 22.4l-4.13 4.15C360.66 21.46 306.14 8.88 273.14 6zm185.4 241.6-2.87 2.87 39.7-83.38 2.87-2.87zM230.22 1.13c15.84-.3 31.54-.36 45.68.73l-4.06 4.05c-14.4-1.16-30.47-1.1-46.63-.8-15.82.31-31.73.85-46.31.73l4-4c14.86.16 31.16-.4 47.32-.7Z"/>
    <path fill="#ad8dff" stroke="#ad8dff" stroke-linejoin="round" d="m457.75 248.4-62.02 23.65 3.26-3.26L461 245.15zM141.26 3.14a59 59 0 0 1 20.8-2.57c3.2.14 6.39.43 9.76.7 3.03.25 6.22.48 9.68.55l-4 4c-3.81-.04-7.27-.29-10.58-.56-3.36-.27-6.57-.57-9.8-.7a60 60 0 0 0-19.38 2.1z"/>
    <path fill="#ad8dff" stroke="#ad8dff" stroke-linejoin="round" d="m368.95 339.94-3.16 3.16 28.36-69.47 3.16-3.16zM135.74 7.24c-17 5.26-34.2 13.11-51.37 21.1-16.52 7.7-33 15.52-49.3 21.31l3.35-3.35c16.99-5.87 34.19-14.04 51.36-22.03 16.55-7.7 33.08-15.26 49.42-20.48z"/>
    <mask id="a" fill="#fff">
        <path d="m369.37 340.24-4.98 4.98v.01z"/>
    </mask>
    <path fill="#ad8dff" d="m369.37 340.24-4.98 4.98v.01z"/>
    <path fill="#ad8dff" d="M369.37 340.23h1a1 1 0 0 0-1.7-.71zm0 0 .7.72a1 1 0 0 0 .3-.71zm-4.98 5h-1a1 1 0 0 0 1.7.7zm0-.02-.71-.7a1 1 0 0 0-.3.7zm4.98-4.98h-1zh1zm0 0-.7-.7-4.99 4.99.7.7.71.71 4.99-4.98zm-4.98 5h1v-.02h-2v.01zm0-.02.7.7 4.99-4.98-.7-.7-.72-.71-4.98 4.98z" mask="url(#a)"/>
    <path fill="#ad8dff" stroke="#ad8dff" stroke-linejoin="round" d="M364.09 339.79q.41.27.9.47a9 9 0 0 0 2.99.66l-3.88 3.88q-.2.1-.8.12-.66 0-1.44-.16a8 8 0 0 1-2.03-.71zm-55.69-51.03c19.31 16 37.37 33.05 54.94 50.36l-4.28 4.28c-17.56-17.3-35.62-34.35-54.94-50.37zM34.4 50.33a69 69 0 0 0-2.97 7.14c-.76 2.1-1.45 4.2-2.06 6.07-.6 1.82-1.1 3.4-1.5 4.54l-3.4 3.4c.89-2.7 2.06-6.42 3.4-10 .87-2.3 1.8-4.52 2.75-6.34.97-1.84 1.93-3.2 2.84-3.88l.06-.05zm272.8 238.2-4.02 4.03-162.58-6.83 4.02-4.03zM27.1 70.27c-2.98 8.38-8.29 22.77-13 36.9a393 393 0 0 0-6.73 21.87c-1.72 6.41-2.84 11.84-2.88 15.31L.55 148.3c.22-3.35 1.25-8.24 2.8-14.01a393 393 0 0 1 6.7-21.82c5.12-15.31 10.92-30.88 13.71-38.86zM4.52 145.74c.16 2.83.87 6.7 1.9 11.1 1.17 5.07 2.78 10.9 4.51 16.78 3.41 11.56 7.32 23.4 9.3 29.96l-4.18 4.18c-2.05-6.7-5.81-18.14-9.14-29.44a308 308 0 0 1-4.5-16.72c-1.15-4.92-1.87-9.08-1.9-11.85zm25.31 83.03c37.7 17.69 74.72 36.82 113.71 52.6l-4.22 4.22C100.35 269.83 63.36 250.73 25.6 233zm-9.27-24.1c.38 1.32.83 3 1.34 4.87a218 218 0 0 0 2.1 7.3 71 71 0 0 0 2.5 6.97 17 17 0 0 0 2.52 4.35l-4.27 4.28a17 17 0 0 1-2.3-4.04c-.88-2-1.7-4.4-2.48-6.87-.77-2.47-1.47-5-2.09-7.27-.58-2.12-1.09-4.02-1.5-5.4z"/>
    <path fill="#c7b1ff" d="M369.37 340.24c-.96.53-4.29-.1-5.32-1.12-17.8-17.55-36.09-34.82-55.68-51.04l-163.94-6.89c-39.34-15.87-76.64-35.17-114.7-53.02-3.8-3.62-7.22-18.83-8.93-24.45-3.94-13.07-15.82-47.86-15.82-59.15 0-13.55 17.79-60.37 23.33-76.22 1.8-5.13 5.8-19.48 9.84-22.48C72.13 34.13 106.99 13.2 140.99 2.7c16.29-5.03 26.06-1.53 41.7-1.36 29.82.33 65.45-2.25 94.33.1 32.92 2.68 88.42 15.51 122.1 22.63 3.98.84 9.6 1.49 13.1 2.76 11.02 3.97 37.67 41.82 48.95 50.41L504 157.77l-40.99 86.08-64.3 24.52z"/>
</svg>
